X:1
T:Danse MAcabre
T:Danse Macabre
T:Saint Saens
T:Matin Yousefi
T:(c) non rights reserved
T:(c) non rights reserved
T:(c) non rights reserved
C:Saint Saens
Z:Matin Yousefi
Z:(c) non rights reserved
%%score { 1 | 2 }
L:1/8
M:3/4
K:Bb
V:1 treble nm="Piano" snm="Pno."
V:2 bass 
V:1
!f! !>![Ae]6 |"_l.h." !>![DA]6 | !>![Ae]6 | !>![DA]6 ||!mf! z6 | z6 | z6 | z2 (GB GA | B2 (AB G)B | %9
 AG) (GB GA | B2) (AB GB | _A2) (Ac AB | c2) (Bc _Ac | B_A) (Ac AB | c2) (_Ac BA | G2) (GB G=A | %16
 B2) (AB GB | AG) (GB GA | B2) (AB GB | _A2) (Ac AB | c2) (Bc _Ac | B_A) (Ac AB | c2) (_Ac BA | %23
 G2) z2!mf! z2 |!mf! z2 [B,DG]4 |!mp! z2 [B,DG]4 | z2 [B,DG]4 | z2 [A,CG]4 | z6 | z6 | z2 [^CGA]4 | %31
 z2 [D^FA]4 | z2 [B,DG]4 | z2 [B,DG]4 | z2 [B,DG]4 | z2 [A,CG]4 | z6 | z6 | z2 z2 .[CD^F]2 | %39
 [B,DG]4 z2 |] %40
V:2
 z6 | z6 | z6 | z6 || (G,2 .D2) .D2 | (G,2 .D2) .D2 | (G,2 .D2) .D2 | (G,2 .D2) .D2 | %8
 (G,2 .D2) .D2 | (G,2 .D2) .D2 | (G,2 .D2) .D2 | (F,2 .C2) .C2 | (F,2 .C2) .C2 | (F,2 .C2) .C2 | %14
 (F,2 .C2) .C2 | (G,2 .D2) .D2 | (G,2 .D2) .D2 | (G,2 .D2) .D2 | (G,2 .D2) .D2 | (F,2 .C2) .C2 | %20
 (F,2 .C2) .C2 | (F,2 .C2) .C2 | (F,2 .C2) .C2 | G,2 z2 (D,2 | G,4) (G,2 | F,4) (F,2 | =E,4) (E,2 | %27
 _E,4) (E,2 | D,2 =E,2 G,2 | ^F,2 =E,2 D,2 | =E,4) (E,2 | ^F,4) (D,2 | G,4) (G,2 | =F,4) (F,2 | %34
 =E,4) (E,2 | _E,4) (E,2 | D,2!<(! G,2 B,2!<)! | D,2 G,2 B,2 | D2) z2!f! .D,2 | G,,4 z2 |] %40

